; G-Code generated by Simplify3D(R) Version 3.0.2
; Oct 26, 2015 at 4:14:38 PM
; Settings Summary
;   processName,Process1
;   applyToModels,GrowlerTapV2Chamfered
;   profileName,PrinterBot Simple Metal Custom (modified)
;   profileVersion,2015-05-01 08:00:00
;   baseProfile,Default (modified)
;   printMaterial,PLA
;   printQuality,Medium
;   printExtruders,
;   extruderName,Primary Extruder
;   extruderToolheadNumber,0
;   extruderDiameter,0.4
;   extruderAutoWidth,0
;   extruderWidth,0.4
;   extrusionMultiplier,1
;   extruderUseRetract,1
;   extruderRetractionDistance,1.5
;   extruderExtraRestartDistance,0.1
;   extruderRetractionZLift,0
;   extruderRetractionSpeed,1800
;   extruderUseCoasting,0
;   extruderCoastingDistance,0.2
;   extruderUseWipe,0
;   extruderWipeDistance,5
;   primaryExtruder,0
;   layerHeight,0.3
;   topSolidLayers,5
;   bottomSolidLayers,5
;   perimeterOutlines,5
;   printPerimetersInsideOut,1
;   startPointOption,2
;   startPointOriginX,0
;   startPointOriginY,0
;   startPointOriginZ,300
;   sequentialIslands,0
;   spiralVaseMode,0
;   firstLayerHeightPercentage,60
;   firstLayerWidthPercentage,100
;   firstLayerUnderspeed,0.5
;   useRaft,0
;   raftExtruder,0
;   raftLayers,3
;   raftOffset,3
;   raftSeparationDistance,0.14
;   raftInfill,85
;   disableRaftBaseLayers,0
;   useSkirt,1
;   skirtExtruder,0
;   skirtLayers,1
;   skirtOutlines,5
;   skirtOffset,5
;   usePrimePillar,0
;   primePillarExtruder,999
;   primePillarWidth,12
;   primePillarLocation,7
;   primePillarSpeedMultiplier,1
;   useOozeShield,0
;   oozeShieldExtruder,999
;   oozeShieldOffset,2
;   oozeShieldOutlines,1
;   oozeShieldSidewallShape,1
;   oozeShieldSidewallAngle,30
;   oozeShieldSpeedMultiplier,1
;   infillExtruder,0
;   internalInfillPattern,Rectilinear
;   externalInfillPattern,Rectilinear
;   infillPercentage,25
;   outlineOverlapPercentage,15
;   infillExtrusionWidthPercentage,100
;   minInfillLength,5
;   infillLayerInterval,1
;   infillAngles,45,-45
;   overlapInfillAngles,0
;   generateSupport,0
;   supportExtruder,0
;   supportInfillPercentage,30
;   supportExtraInflation,0.4
;   denseSupportLayers,0
;   denseSupportInfillPercentage,70
;   supportLayerInterval,1
;   supportHorizontalPartOffset,0.3
;   supportUpperSeparationLayers,1
;   supportLowerSeparationLayers,1
;   supportType,0
;   supportGridSpacing,4
;   maxOverhangAngle,45
;   supportAngles,0
;   temperatureName,Primary Extruder,Heated Bed
;   temperatureNumber,0,1
;   temperatureSetpointCount,2,3
;   temperatureSetpointLayers,1,2,1,2,3
;   temperatureSetpointTemperatures,210,200,70,65,63
;   temperatureStabilizeAtStartup,1,1
;   temperatureHeatedBed,0,1
;   temperatureRelayBetweenLayers,0,0
;   temperatureRelayBetweenLoops,0,0
;   fanLayers,1,2,3
;   fanSpeeds,0,0,100
;   blipFanToFullPower,1
;   adjustSpeedForCooling,1
;   minSpeedLayerTime,15
;   minCoolingSpeedSlowdown,20
;   increaseFanForCooling,0
;   minFanLayerTime,45
;   maxCoolingFanSpeed,100
;   increaseFanForBridging,0
;   bridgingFanSpeed,100
;   use5D,1
;   relativeEdistances,0
;   allowEaxisZeroing,1
;   independentExtruderAxes,0
;   includeM10123,0
;   stickySupport,1
;   applyToolheadOffsets,0
;   gcodeXoffset,0
;   gcodeYoffset,0
;   gcodeZoffset,0
;   overrideMachineDefinition,1
;   machineTypeOverride,0
;   strokeXoverride,150
;   strokeYoverride,150
;   strokeZoverride,150
;   originOffsetXoverride,0
;   originOffsetYoverride,0
;   originOffsetZoverride,0
;   homeXdirOverride,-1
;   homeYdirOverride,-1
;   homeZdirOverride,-1
;   flipXoverride,1
;   flipYoverride,-1
;   flipZoverride,1
;   toolheadOffsets,0,0|0,0|0,0|0,0|0,0|0,0
;   overrideFirmwareConfiguration,1
;   firmwareTypeOverride,RepRap (Marlin/Repetier/Sprinter)
;   GPXconfigOverride,r2
;   baudRateOverride,250000
;   overridePrinterModels,1
;   printerModelsOverride
;   startingGcode,G28 X0 Y0 ; home X and Y axes,G29 ; probe z,M201 X1000 Y1000 ; acceleration settings
;   layerChangeGcode,
;   retractionGcode,
;   toolChangeGcode,
;   endingGcode,M104 S0 T0 ; turn off extruder,M140 S0 T1 ; turn off bed,G28 X0 Y0 ; home,M84 ; disable motors
;   createX3G,0
;   celebration,0
;   celebrationSong,Random Song
;   createMB5G,0
;   postProcessing,
;   defaultSpeed,3300
;   outlineUnderspeed,0.8
;   solidInfillUnderspeed,0.8
;   supportUnderspeed,0.8
;   rapidXYspeed,4200
;   rapidZspeed,1002
;   minBridgingArea,50
;   bridgingExtraInflation,0
;   bridgingExtrusionMultiplier,1
;   bridgingSpeedMultiplier,0.8
;   filamentDiameter,1.74
;   filamentPricePerKg,22
;   filamentDensity,1.25
;   useMinPrintHeight,0
;   minPrintHeight,0
;   useMaxPrintHeight,0
;   maxPrintHeight,0
;   useDiaphragm,0
;   diaphragmLayerInterval,20
;   robustSlicing,1
;   mergeAllIntoSolid,0
;   onlyRetractWhenCrossingOutline,1
;   retractBetweenLayers,1
;   useRetractionMinTravel,0
;   retractionMinTravel,3
;   retractWhileWiping,0
;   onlyWipeOutlines,1
;   avoidCrossingOutline,0
;   maxMovementDetourFactor,3
;   toolChangeRetractionDistance,12
;   toolChangeExtraRestartDistance,-0.5
;   toolChangeRetractionSpeed,600
;   allowThinWallGapFill,1
;   thinWallAllowedOverlapPercentage,10
;   horizontalSizeCompensation,0
G90
M82
M106 S0
M140 S70
M190 S70
M104 S210 T0
M109 S210 T0
G28 X0 Y0 ; home X and Y axes
G29 ; probe z
M201 X1000 Y1000 ; acceleration settings
G92 E0
G1 E-1.5000 F1800
G1 Z0.180 F1002
; layer 1, Z = 0.18
T0
; tool H0.300 W0.400
; skirt
G1 X57.472 Y49.839 F4200
G1 E0.1000 F540
G92 E0
G1 X58.570 Y48.741 E0.0784 F1650
G1 X58.757 Y48.598 E0.0903
G1 X60.258 Y47.732 E0.1777
G1 X60.476 Y47.641 E0.1896
G1 X61.975 Y47.240 E0.2679
G1 X62.209 Y47.209 E0.2799
G1 X87.792 Y47.209 E1.5709
G1 X88.026 Y47.240 E1.5828
G1 X89.526 Y47.642 E1.6612
G1 X89.744 Y47.732 E1.6731
G1 X91.244 Y48.599 E1.7605
G1 X91.431 Y48.742 E1.7724
G1 X92.528 Y49.840 E1.8507
G1 X92.672 Y50.027 E1.8626
G1 X105.462 Y72.181 E3.1536
G1 X105.552 Y72.399 E3.1655
G1 X105.954 Y73.899 E3.2439
G1 X105.985 Y74.133 E3.2558
G1 X105.985 Y75.865 E3.3432
G1 X105.954 Y76.099 E3.3551
G1 X105.552 Y77.599 E3.4334
G1 X105.462 Y77.817 E3.4454
G1 X92.672 Y99.970 E4.7363
G1 X92.529 Y100.157 E4.7482
G1 X91.433 Y101.254 E4.8264
G1 X91.246 Y101.397 E4.8383
G1 X89.746 Y102.265 E4.9257
G1 X89.528 Y102.355 E4.9377
G1 X88.027 Y102.758 E5.0161
G1 X87.792 Y102.789 E5.0280
G1 X62.208 Y102.789 E6.3191
G1 X61.974 Y102.758 E6.3311
G1 X60.473 Y102.356 E6.4095
G1 X60.255 Y102.265 E6.4214
G1 X58.755 Y101.399 E6.5088
G1 X58.568 Y101.255 E6.5207
G1 X57.472 Y100.158 E6.5990
G1 X57.328 Y99.971 E6.6109
G1 X51.248 Y89.443 E7.2245
G1 X51.247 Y89.441 E7.2245
G1 X44.538 Y77.816 E7.9019
G1 X44.447 Y77.598 E7.9138
G1 X44.046 Y76.099 E7.9921
G1 X44.015 Y75.865 E8.0040
G1 X44.015 Y74.133 E8.0914
G1 X44.046 Y73.899 E8.1034
G1 X44.448 Y72.399 E8.1817
G1 X44.538 Y72.181 E8.1936
G1 X57.328 Y50.027 E9.4846
G1 X57.472 Y49.839 E9.4965
G1 X57.773 Y50.104 F4200
G92 E0
G1 X58.834 Y49.043 E0.0757 F1650
G1 X58.980 Y48.931 E0.0850
G1 X60.435 Y48.091 E0.1698
G1 X60.605 Y48.021 E0.1790
G1 X62.053 Y47.633 E0.2547
G1 X62.235 Y47.609 E0.2640
G1 X87.765 Y47.609 E1.5524
G1 X87.947 Y47.633 E1.5616
G1 X89.397 Y48.022 E1.6374
G1 X89.566 Y48.092 E1.6466
G1 X91.021 Y48.932 E1.7314
G1 X91.167 Y49.044 E1.7407
G1 X92.227 Y50.104 E1.8163
G1 X92.339 Y50.250 E1.8256
G1 X105.103 Y72.359 E3.1139
G1 X105.173 Y72.528 E3.1232
G1 X105.561 Y73.977 E3.1989
G1 X105.585 Y74.159 E3.2081
G1 X105.585 Y75.839 E3.2929
G1 X105.561 Y76.021 E3.3022
G1 X105.173 Y77.470 E3.3779
G1 X105.103 Y77.639 E3.3871
G1 X92.339 Y99.748 E4.6754
G1 X92.227 Y99.893 E4.6847
G1 X91.169 Y100.953 E4.7603
G1 X91.023 Y101.064 E4.7695
G1 X89.569 Y101.905 E4.8543
G1 X89.399 Y101.976 E4.8636
G1 X87.948 Y102.365 E4.9394
G1 X87.766 Y102.389 E4.9487
G1 X62.234 Y102.389 E6.2371
G1 X62.052 Y102.365 E6.2464
G1 X60.602 Y101.976 E6.3221
G1 X60.433 Y101.906 E6.3314
G1 X58.978 Y101.065 E6.4162
G1 X58.833 Y100.954 E6.4254
G1 X57.773 Y99.894 E6.5011
G1 X57.662 Y99.749 E6.5103
G1 X51.595 Y89.243 E7.1225
G1 X51.593 Y89.240 E7.1227
G1 X44.897 Y77.639 E7.7987
G1 X44.827 Y77.469 E7.8080
G1 X44.439 Y76.021 E7.8836
G1 X44.415 Y75.839 E7.8929
G1 X44.415 Y74.159 E7.9777
G1 X44.439 Y73.977 E7.9869
G1 X44.827 Y72.528 E8.0626
G1 X44.897 Y72.359 E8.0719
G1 X57.662 Y50.249 E9.3602
G1 X57.773 Y50.104 E9.3695
G1 X58.075 Y50.368 F4200
G92 E0
G1 X59.099 Y49.344 E0.0731 F1650
G1 X59.203 Y49.264 E0.0797
G1 X60.612 Y48.451 E0.1618
G1 X60.733 Y48.401 E0.1684
G1 X62.131 Y48.026 E0.2415
G1 X62.261 Y48.009 E0.2481
G1 X87.739 Y48.009 E1.5338
G1 X87.869 Y48.026 E1.5405
G1 X89.268 Y48.401 E1.6135
G1 X89.389 Y48.451 E1.6202
G1 X90.798 Y49.265 E1.7023
G1 X90.902 Y49.345 E1.7089
G1 X91.926 Y50.369 E1.7819
G1 X92.005 Y50.472 E1.7886
G1 X104.743 Y72.536 E3.0742
G1 X104.793 Y72.657 E3.0808
G1 X105.168 Y74.055 E3.1539
G1 X105.185 Y74.185 E3.1605
G1 X105.185 Y75.813 E3.2426
G1 X105.168 Y75.943 E3.2493
G1 X104.793 Y77.341 E3.3223
G1 X104.743 Y77.462 E3.3289
G1 X92.006 Y99.525 E4.6146
G1 X91.926 Y99.629 E4.6212
G1 X90.904 Y100.651 E4.6941
G1 X90.800 Y100.731 E4.7007
G1 X89.391 Y101.546 E4.7829
G1 X89.270 Y101.596 E4.7895
G1 X87.870 Y101.972 E4.8626
G1 X87.740 Y101.989 E4.8693
G1 X62.261 Y101.989 E6.1551
G1 X62.131 Y101.972 E6.1617
G1 X60.731 Y101.597 E6.2348
G1 X60.610 Y101.546 E6.2414
G1 X59.201 Y100.732 E6.3236
G1 X59.097 Y100.652 E6.3302
G1 X58.075 Y99.630 E6.4032
G1 X57.995 Y99.526 E6.4098
G1 X51.940 Y89.042 E7.0208
G1 X51.939 Y89.040 E7.0209
G1 X45.257 Y77.461 E7.6955
G1 X45.207 Y77.340 E7.7021
G1 X44.832 Y75.943 E7.7751
G1 X44.815 Y75.813 E7.7818
G1 X44.815 Y74.185 E7.8639
G1 X44.832 Y74.055 E7.8705
G1 X45.207 Y72.657 E7.9435
G1 X45.257 Y72.536 E7.9502
G1 X57.995 Y50.472 E9.2359
G1 X58.075 Y50.368 E9.2425
G1 X58.376 Y50.632 F4200
G92 E0
G1 X59.363 Y49.646 E0.0704 F1650
G1 X59.425 Y49.598 E0.0744
G1 X60.790 Y48.810 E0.1539
G1 X60.862 Y48.780 E0.1579
G1 X62.210 Y48.419 E0.2283
G1 X62.288 Y48.409 E0.2322
G1 X87.713 Y48.409 E1.5153
G1 X87.791 Y48.419 E1.5193
G1 X89.139 Y48.781 E1.5897
G1 X89.212 Y48.811 E1.5937
G1 X90.576 Y49.599 E1.6732
G1 X90.638 Y49.646 E1.6772
G1 X91.624 Y50.633 E1.7475
G1 X91.672 Y50.695 E1.7515
G1 X104.384 Y72.713 E3.0345
G1 X104.414 Y72.786 E3.0385
G1 X104.775 Y74.133 E3.1089
G1 X104.785 Y74.211 E3.1129
G1 X104.785 Y75.787 E3.1924
G1 X104.775 Y75.865 E3.1963
G1 X104.414 Y77.212 E3.2667
G1 X104.384 Y77.285 E3.2707
G1 X91.672 Y99.302 E4.5537
G1 X91.625 Y99.365 E4.5577
G1 X90.640 Y100.350 E4.6280
G1 X90.577 Y100.398 E4.6319
G1 X89.214 Y101.187 E4.7114
G1 X89.141 Y101.217 E4.7154
G1 X87.792 Y101.579 E4.7859
G1 X87.714 Y101.589 E4.7899
G1 X62.287 Y101.589 E6.0731
G1 X62.209 Y101.579 E6.0770
G1 X60.860 Y101.217 E6.1475
G1 X60.787 Y101.187 E6.1515
G1 X59.424 Y100.399 E6.2310
G1 X59.361 Y100.351 E6.2349
G1 X58.376 Y99.365 E6.3053
G1 X58.328 Y99.303 E6.3092
G1 X52.285 Y88.839 E6.9190
G1 X45.616 Y77.284 E7.5923
G1 X45.586 Y77.212 E7.5963
G1 X45.225 Y75.864 E7.6666
G1 X45.215 Y75.786 E7.6706
G1 X45.215 Y74.211 E7.7501
G1 X45.225 Y74.133 E7.7541
G1 X45.586 Y72.786 E7.8245
G1 X45.616 Y72.713 E7.8284
G1 X58.328 Y50.695 E9.1115
G1 X58.376 Y50.632 E9.1155
G1 X58.677 Y50.897 F4200
G92 E0
G1 X59.627 Y49.947 E0.0678 F1650
G1 X59.648 Y49.931 E0.0691
G1 X60.967 Y49.170 E0.1460
G1 X60.991 Y49.160 E0.1473
G1 X62.288 Y48.812 E0.2150
G1 X62.314 Y48.809 E0.2163
G1 X87.687 Y48.809 E1.4968
G1 X87.713 Y48.812 E1.4981
G1 X89.010 Y49.160 E1.5659
G1 X89.034 Y49.170 E1.5672
G1 X90.353 Y49.932 E1.6441
G1 X90.374 Y49.948 E1.6454
G1 X91.323 Y50.897 E1.7131
G1 X91.339 Y50.918 E1.7145
G1 X104.024 Y72.891 E2.9948
G1 X104.034 Y72.915 E2.9962
G1 X104.382 Y74.212 E3.0639
G1 X104.385 Y74.238 E3.0652
G1 X104.385 Y75.760 E3.1421
G1 X104.382 Y75.786 E3.1434
G1 X104.034 Y77.083 E3.2112
G1 X104.024 Y77.108 E3.2125
G1 X91.339 Y99.080 E4.4928
G1 X91.323 Y99.100 E4.4942
G1 X90.375 Y100.049 E4.5618
G1 X90.355 Y100.065 E4.5632
G1 X89.036 Y100.827 E4.6400
G1 X89.012 Y100.837 E4.6413
G1 X87.713 Y101.186 E4.7092
G1 X87.687 Y101.189 E4.7105
G1 X62.313 Y101.189 E5.9910
G1 X62.287 Y101.186 E5.9924
G1 X60.989 Y100.838 E6.0602
G1 X60.965 Y100.828 E6.0615
G1 X59.647 Y100.066 E6.1383
G1 X59.626 Y100.050 E6.1397
G1 X58.677 Y99.101 E6.2073
G1 X58.661 Y99.080 E6.2087
G1 X52.632 Y88.640 E6.8171
G1 X52.631 Y88.639 E6.8171
G1 X52.631 Y88.639 E6.8172
G1 X45.976 Y77.107 E7.4891
G1 X45.966 Y77.083 E7.4904
G1 X45.618 Y75.786 E7.5582
G1 X45.615 Y75.760 E7.5595
G1 X45.615 Y74.238 E7.6363
G1 X45.618 Y74.212 E7.6376
G1 X45.966 Y72.915 E7.7054
G1 X45.976 Y72.891 E7.7067
G1 X58.661 Y50.917 E8.9871
G1 X58.677 Y50.897 E8.9884
G92 E0
G1 E-1.5000 F1800
; inner perimeter
G1 X63.920 Y55.809 F4200
G1 E0.1000 F1800
G92 E0
G1 X80.530 Y55.809 E0.8382 F1584
G1 X80.581 Y56.067 E0.8515
G1 X79.311 Y56.593 E0.9209
G1 X78.003 Y57.597 E1.0041
G1 X76.998 Y58.905 E1.0873
G1 X76.369 Y60.427 E1.1704
G1 X76.153 Y62.063 E1.2537
G1 X76.369 Y63.696 E1.3368
G1 X76.998 Y65.221 E1.4200
G1 X78.004 Y66.527 E1.5032
G1 X79.311 Y67.531 E1.5864
G1 X80.834 Y68.162 E1.6696
G1 X82.469 Y68.379 E1.7528
G1 X84.104 Y68.162 E1.8360
G1 X85.627 Y67.531 E1.9193
G1 X86.934 Y66.527 E2.0024
G1 X87.939 Y65.222 E2.0855
G1 X88.571 Y63.696 E2.1689
G1 X88.784 Y62.063 E2.2520
G1 X88.607 Y60.701 E2.3213
G1 X88.855 Y60.617 E2.3346
G1 X97.158 Y74.999 E3.1727
G1 X86.080 Y94.189 E4.2909
G1 X69.475 Y94.189 E5.1289
G1 X69.423 Y93.932 E5.1421
G1 X70.689 Y93.407 E5.2113
G1 X71.998 Y92.402 E5.2945
G1 X72.999 Y91.095 E5.3776
G1 X73.630 Y89.574 E5.4607
G1 X73.847 Y87.939 E5.5440
G1 X73.630 Y86.303 E5.6273
G1 X72.999 Y84.780 E5.7104
G1 X71.997 Y83.471 E5.7936
G1 X70.688 Y82.469 E5.8768
G1 X69.165 Y81.837 E5.9600
G1 X67.529 Y81.621 E6.0433
G1 X65.894 Y81.838 E6.1266
G1 X64.373 Y82.469 E6.2096
G1 X63.066 Y83.470 E6.2927
G1 X62.061 Y84.779 E6.3760
G1 X61.429 Y86.304 E6.4593
G1 X61.216 Y87.939 E6.5426
G1 X61.393 Y89.299 E6.6118
G1 X61.145 Y89.383 E6.6250
G1 X58.693 Y85.138 E6.8724
G1 X52.841 Y74.999 E7.4632
G1 X63.920 Y55.809 E8.5814
G1 X84.357 Y56.067 F4200
G92 E0
G1 X84.408 Y55.809 E0.0133 F1584
G1 X86.080 Y55.809 E0.0976
G1 X86.916 Y57.258 E0.1821
G1 X86.719 Y57.431 E0.1953
G1 X85.627 Y56.593 E0.2648
G1 X84.357 Y56.067 E0.3342
G92 E0
G1 E-1.5000 F1800
G1 X63.282 Y92.569 F4200
G1 E0.1000 F1800
G92 E0
G1 X64.372 Y93.407 E0.0694 F1584
G1 X65.637 Y93.932 E0.1385
G1 X65.586 Y94.189 E0.1517
G1 X63.920 Y94.189 E0.2358
G1 X63.085 Y92.743 E0.3201
G1 X63.282 Y92.569 E0.3333
G92 E0
G1 E-1.5000 F1800
; inner perimeter
G1 X63.689 Y55.409 F4200
G1 E0.1000 F1800
G92 E0
G1 X86.311 Y55.409 E1.1416 F1518
G1 X97.620 Y74.999 E2.2831
G1 X86.311 Y94.589 E3.4247
G1 X63.689 Y94.589 E4.5663
G1 X58.347 Y85.339 E5.1054
G1 X52.380 Y74.999 E5.7078
G1 X63.689 Y55.409 E6.8494
; inner perimeter
G1 X63.458 Y55.009 F4200
G92 E0
G1 X86.542 Y55.009 E1.1649 F1452
G1 X98.082 Y74.999 E2.3297
G1 X86.541 Y94.989 E3.4946
G1 X63.458 Y94.989 E4.6595
G1 X58.000 Y85.539 E5.2102
G1 X51.918 Y74.999 E5.8244
G1 X63.458 Y55.009 E6.9892
; inner perimeter
G1 X63.227 Y54.609 F4200
G92 E0
G1 X86.772 Y54.609 E1.1882 F1386
G1 X98.544 Y74.999 E2.3764
G1 X86.772 Y95.389 E3.5645
G1 X63.227 Y95.389 E4.7527
G1 X57.654 Y85.739 E5.3151
G1 X51.456 Y74.999 E5.9409
G1 X63.227 Y54.609 E7.1291
; outer perimeter
G1 X62.975 Y54.245 F4200
G92 E0
G1 X63.039 Y54.209 E0.0037 F1320
G1 X86.961 Y54.209 E1.2110
G1 X87.024 Y54.245 E1.2146
G1 X98.985 Y74.963 E2.4218
G1 X98.985 Y75.035 E2.4255
G1 X87.024 Y95.753 E3.6328
G1 X86.961 Y95.789 E3.6364
G1 X63.039 Y95.789 E4.8437
G1 X62.975 Y95.753 E4.8474
G1 X57.308 Y85.939 E5.4193
G1 X51.015 Y75.035 E6.0546
G1 X51.015 Y74.963 E6.0583
G1 X62.975 Y54.245 E7.2655
; inner perimeter
; inner perimeter
G1 X77.348 Y59.107 F4200
G92 E0
G1 X76.759 Y60.532 E0.0778 F1518
G1 X76.557 Y62.063 E0.1557
G1 X76.759 Y63.592 E0.2336
G1 X77.348 Y65.019 E0.3115
G1 X78.289 Y66.242 E0.3894
G1 X79.513 Y67.182 E0.4672
G1 X80.939 Y67.773 E0.5451
G1 X82.469 Y67.975 E0.6230
G1 X83.999 Y67.773 E0.7009
G1 X85.425 Y67.182 E0.7788
G1 X86.649 Y66.242 E0.8567
G1 X87.589 Y65.020 E0.9345
G1 X88.181 Y63.592 E1.0125
G1 X88.381 Y62.063 E1.0903
G1 X88.181 Y60.532 E1.1682
G1 X87.589 Y59.106 E1.2461
G1 X86.649 Y57.883 E1.3240
