; G-Code generated by Simplify3D(R) Version 3.0.2
; Oct 25, 2015 at 8:26:13 AM
; Settings Summary
;   processName,Process1
;   applyToModels,GrowlerTapChamfered
;   profileName,PrinterBot Simple Metal Custom (modified)
;   profileVersion,2015-05-01 08:00:00
;   baseProfile,Default (modified)
;   printMaterial,PLA
;   printQuality,Medium
;   printExtruders,
;   extruderName,Primary Extruder
;   extruderToolheadNumber,0
;   extruderDiameter,0.4
;   extruderAutoWidth,0
;   extruderWidth,0.4
;   extrusionMultiplier,1
;   extruderUseRetract,1
;   extruderRetractionDistance,1.5
;   extruderExtraRestartDistance,0.1
;   extruderRetractionZLift,0
;   extruderRetractionSpeed,1800
;   extruderUseCoasting,0
;   extruderCoastingDistance,0.2
;   extruderUseWipe,0
;   extruderWipeDistance,5
;   primaryExtruder,0
;   layerHeight,0.2
;   topSolidLayers,3
;   bottomSolidLayers,3
;   perimeterOutlines,2
;   printPerimetersInsideOut,1
;   startPointOption,2
;   startPointOriginX,0
;   startPointOriginY,0
;   startPointOriginZ,300
;   sequentialIslands,0
;   spiralVaseMode,0
;   firstLayerHeightPercentage,60
;   firstLayerWidthPercentage,100
;   firstLayerUnderspeed,0.5
;   useRaft,0
;   raftExtruder,0
;   raftLayers,3
;   raftOffset,3
;   raftSeparationDistance,0.14
;   raftInfill,85
;   disableRaftBaseLayers,0
;   useSkirt,1
;   skirtExtruder,0
;   skirtLayers,1
;   skirtOutlines,5
;   skirtOffset,4
;   usePrimePillar,0
;   primePillarExtruder,999
;   primePillarWidth,12
;   primePillarLocation,7
;   primePillarSpeedMultiplier,1
;   useOozeShield,0
;   oozeShieldExtruder,999
;   oozeShieldOffset,2
;   oozeShieldOutlines,1
;   oozeShieldSidewallShape,1
;   oozeShieldSidewallAngle,30
;   oozeShieldSpeedMultiplier,1
;   infillExtruder,0
;   internalInfillPattern,Rectilinear
;   externalInfillPattern,Rectilinear
;   infillPercentage,10
;   outlineOverlapPercentage,15
;   infillExtrusionWidthPercentage,100
;   minInfillLength,5
;   infillLayerInterval,1
;   infillAngles,45,-45
;   overlapInfillAngles,0
;   generateSupport,0
;   supportExtruder,0
;   supportInfillPercentage,30
;   supportExtraInflation,0.4
;   denseSupportLayers,0
;   denseSupportInfillPercentage,70
;   supportLayerInterval,1
;   supportHorizontalPartOffset,0.3
;   supportUpperSeparationLayers,1
;   supportLowerSeparationLayers,1
;   supportType,0
;   supportGridSpacing,4
;   maxOverhangAngle,45
;   supportAngles,0
;   temperatureName,Primary Extruder,Heated Bed
;   temperatureNumber,0,1
;   temperatureSetpointCount,2,3
;   temperatureSetpointLayers,1,2,1,2,3
;   temperatureSetpointTemperatures,210,200,70,65,63
;   temperatureStabilizeAtStartup,1,1
;   temperatureHeatedBed,0,1
;   temperatureRelayBetweenLayers,0,0
;   temperatureRelayBetweenLoops,0,0
;   fanLayers,1,2,3
;   fanSpeeds,0,0,100
;   blipFanToFullPower,1
;   adjustSpeedForCooling,1
;   minSpeedLayerTime,15
;   minCoolingSpeedSlowdown,20
;   increaseFanForCooling,0
;   minFanLayerTime,45
;   maxCoolingFanSpeed,100
;   increaseFanForBridging,0
;   bridgingFanSpeed,100
;   use5D,1
;   relativeEdistances,0
;   allowEaxisZeroing,1
;   independentExtruderAxes,0
;   includeM10123,0
;   stickySupport,1
;   applyToolheadOffsets,0
;   gcodeXoffset,0
;   gcodeYoffset,0
;   gcodeZoffset,0
;   overrideMachineDefinition,1
;   machineTypeOverride,0
;   strokeXoverride,150
;   strokeYoverride,150
;   strokeZoverride,150
;   originOffsetXoverride,0
;   originOffsetYoverride,0
;   originOffsetZoverride,0
;   homeXdirOverride,-1
;   homeYdirOverride,-1
;   homeZdirOverride,-1
;   flipXoverride,1
;   flipYoverride,-1
;   flipZoverride,1
;   toolheadOffsets,0,0|0,0|0,0|0,0|0,0|0,0
;   overrideFirmwareConfiguration,1
;   firmwareTypeOverride,RepRap (Marlin/Repetier/Sprinter)
;   GPXconfigOverride,r2
;   baudRateOverride,250000
;   overridePrinterModels,1
;   printerModelsOverride
;   startingGcode,G28 X0 Y0 ; home X and Y axes,G29 ; probe z,M201 X1000 Y1000 ; acceleration settings
;   layerChangeGcode,
;   retractionGcode,
;   toolChangeGcode,
;   endingGcode,M104 S0 T0 ; turn off extruder,M140 S0 T1 ; turn off bed,G28 X0 Y0 ; home,M84 ; disable motors
;   createX3G,0
;   celebration,0
;   celebrationSong,Random Song
;   createMB5G,0
;   postProcessing,
;   defaultSpeed,3300
;   outlineUnderspeed,0.8
;   solidInfillUnderspeed,0.8
;   supportUnderspeed,0.8
;   rapidXYspeed,4200
;   rapidZspeed,1002
;   minBridgingArea,50
;   bridgingExtraInflation,0
;   bridgingExtrusionMultiplier,1
;   bridgingSpeedMultiplier,0.8
;   filamentDiameter,1.74
;   filamentPricePerKg,22
;   filamentDensity,1.25
;   useMinPrintHeight,0
;   minPrintHeight,0
;   useMaxPrintHeight,0
;   maxPrintHeight,0
;   useDiaphragm,0
;   diaphragmLayerInterval,20
;   robustSlicing,1
;   mergeAllIntoSolid,0
;   onlyRetractWhenCrossingOutline,1
;   retractBetweenLayers,1
;   useRetractionMinTravel,0
;   retractionMinTravel,3
;   retractWhileWiping,0
;   onlyWipeOutlines,1
;   avoidCrossingOutline,0
;   maxMovementDetourFactor,3
;   toolChangeRetractionDistance,12
;   toolChangeExtraRestartDistance,-0.5
;   toolChangeRetractionSpeed,600
;   allowThinWallGapFill,1
;   thinWallAllowedOverlapPercentage,10
;   horizontalSizeCompensation,0
G90
M82
M106 S0
M140 S70
M190 S70
M104 S210 T0
M109 S210 T0
G28 X0 Y0 ; home X and Y axes
G29 ; probe z
M201 X1000 Y1000 ; acceleration settings
G92 E0
G1 E-1.5000 F1800
G1 Z0.120 F1002
; layer 1, Z = 0.12
T0
; tool H0.200 W0.400
; skirt
G1 X56.529 Y47.374 F4200
G1 E0.1000 F540
G92 E0
G1 X57.440 Y46.462 E0.0434 F1650
G1 X57.627 Y46.318 E0.0513
G1 X58.848 Y45.614 E0.0987
G1 X59.066 Y45.523 E0.1067
G1 X60.311 Y45.190 E0.1500
G1 X60.545 Y45.159 E0.1580
G1 X89.455 Y45.159 E1.1306
G1 X89.689 Y45.190 E1.1385
G1 X90.934 Y45.523 E1.1819
G1 X91.152 Y45.614 E1.1899
G1 X92.373 Y46.318 E1.2373
G1 X92.560 Y46.462 E1.2452
G1 X93.471 Y47.374 E1.2886
G1 X93.615 Y47.561 E1.2965
G1 X108.071 Y72.599 E2.2692
G1 X108.161 Y72.817 E2.2771
G1 X108.495 Y74.062 E2.3205
G1 X108.526 Y74.296 E2.3285
G1 X108.526 Y75.706 E2.3759
G1 X108.495 Y75.940 E2.3838
G1 X108.161 Y77.185 E2.4272
G1 X108.071 Y77.403 E2.4351
G1 X93.615 Y102.439 E3.4078
G1 X93.471 Y102.627 E3.4157
G1 X92.560 Y103.538 E3.4591
G1 X92.373 Y103.682 E3.4670
G1 X91.152 Y104.386 E3.5144
G1 X90.934 Y104.477 E3.5224
G1 X89.689 Y104.810 E3.5657
G1 X89.455 Y104.841 E3.5737
G1 X60.545 Y104.841 E4.5463
G1 X60.311 Y104.810 E4.5542
G1 X59.066 Y104.477 E4.5976
G1 X58.848 Y104.386 E4.6056
G1 X57.627 Y103.682 E4.6530
G1 X57.440 Y103.538 E4.6609
G1 X56.529 Y102.627 E4.7043
G1 X56.385 Y102.439 E4.7122
G1 X41.929 Y77.403 E5.6848
G1 X41.839 Y77.185 E5.6928
G1 X41.505 Y75.940 E5.7362
G1 X41.474 Y75.706 E5.7441
G1 X41.474 Y74.296 E5.7915
G1 X41.505 Y74.062 E5.7994
G1 X41.839 Y72.817 E5.8428
G1 X41.929 Y72.599 E5.8508
G1 X56.385 Y47.561 E6.8235
G1 X56.529 Y47.374 E6.8314
G1 X56.830 Y47.638 F4200
G92 E0
G1 X57.705 Y46.763 E0.0416 F1650
G1 X57.850 Y46.652 E0.0478
G1 X59.025 Y45.973 E0.0934
G1 X59.195 Y45.903 E0.0996
G1 X60.389 Y45.583 E0.1412
G1 X60.571 Y45.559 E0.1474
G1 X89.429 Y45.559 E1.1183
G1 X89.611 Y45.583 E1.1244
G1 X90.805 Y45.903 E1.1660
G1 X90.975 Y45.973 E1.1722
G1 X92.150 Y46.652 E1.2179
G1 X92.295 Y46.763 E1.2240
G1 X93.170 Y47.638 E1.2656
G1 X93.282 Y47.783 E1.2718
G1 X107.711 Y72.777 E2.2427
G1 X107.782 Y72.946 E2.2489
G1 X108.102 Y74.141 E2.2905
G1 X108.126 Y74.323 E2.2967
G1 X108.126 Y75.679 E2.3424
G1 X108.102 Y75.861 E2.3485
G1 X107.782 Y77.056 E2.3901
G1 X107.711 Y77.226 E2.3963
G1 X93.282 Y102.217 E3.3672
G1 X93.170 Y102.362 E3.3734
G1 X92.295 Y103.237 E3.4150
G1 X92.150 Y103.348 E3.4211
G1 X90.975 Y104.027 E3.4668
G1 X90.805 Y104.097 E3.4730
G1 X89.611 Y104.417 E3.5146
G1 X89.429 Y104.441 E3.5207
G1 X60.571 Y104.441 E4.4916
G1 X60.389 Y104.417 E4.4978
G1 X59.195 Y104.097 E4.5394
G1 X59.025 Y104.027 E4.5456
G1 X57.850 Y103.348 E4.5912
G1 X57.705 Y103.237 E4.5974
G1 X56.830 Y102.362 E4.6390
G1 X56.718 Y102.217 E4.6452
G1 X42.289 Y77.226 E5.6160
G1 X42.218 Y77.056 E5.6222
G1 X41.898 Y75.861 E5.6638
G1 X41.874 Y75.679 E5.6700
G1 X41.874 Y74.323 E5.7157
G1 X41.898 Y74.141 E5.7218
G1 X42.218 Y72.946 E5.7634
G1 X42.289 Y72.777 E5.7696
G1 X56.718 Y47.783 E6.7405
G1 X56.830 Y47.638 E6.7467
G1 X57.131 Y47.902 F4200
G92 E0
G1 X57.969 Y47.065 E0.0398 F1650
G1 X58.073 Y46.985 E0.0443
G1 X59.202 Y46.333 E0.0881
G1 X59.323 Y46.283 E0.0925
G1 X60.467 Y45.976 E0.1324
G1 X60.597 Y45.959 E0.1368
G1 X89.403 Y45.959 E1.1059
G1 X89.533 Y45.976 E1.1103
G1 X90.677 Y46.283 E1.1502
G1 X90.798 Y46.333 E1.1546
G1 X91.927 Y46.985 E1.1985
G1 X92.031 Y47.065 E1.2029
G1 X92.869 Y47.902 E1.2427
G1 X92.948 Y48.006 E1.2471
G1 X107.352 Y72.954 E2.2163
G1 X107.402 Y73.075 E2.2207
G1 X107.709 Y74.219 E2.2605
G1 X107.726 Y74.349 E2.2650
G1 X107.726 Y75.653 E2.3088
G1 X107.709 Y75.783 E2.3132
G1 X107.402 Y76.927 E2.3531
G1 X107.352 Y77.048 E2.3575
G1 X92.948 Y101.994 E3.3266
G1 X92.868 Y102.098 E3.3310
G1 X92.031 Y102.935 E3.3709
G1 X91.927 Y103.015 E3.3753
G1 X90.798 Y103.667 E3.4192
G1 X90.677 Y103.717 E3.4236
G1 X89.533 Y104.024 E3.4634
G1 X89.403 Y104.041 E3.4678
G1 X60.597 Y104.041 E4.4369
G1 X60.467 Y104.024 E4.4413
G1 X59.323 Y103.717 E4.4812
G1 X59.202 Y103.667 E4.4856
G1 X58.073 Y103.015 E4.5295
G1 X57.969 Y102.935 E4.5339
G1 X57.132 Y102.098 E4.5737
G1 X57.052 Y101.994 E4.5781
G1 X42.648 Y77.048 E5.5472
G1 X42.598 Y76.927 E5.5517
G1 X42.291 Y75.783 E5.5915
G1 X42.274 Y75.653 E5.5959
G1 X42.274 Y74.349 E5.6398
G1 X42.291 Y74.219 E5.6442
G1 X42.598 Y73.075 E5.6840
G1 X42.648 Y72.954 E5.6885
G1 X57.052 Y48.006 E6.6576
G1 X57.131 Y47.902 E6.6620
G1 X57.433 Y48.167 F4200
G92 E0
G1 X58.233 Y47.366 E0.0381 F1650
G1 X58.296 Y47.318 E0.0407
G1 X59.380 Y46.692 E0.0828
G1 X59.452 Y46.662 E0.0855
G1 X60.546 Y46.369 E0.1236
G1 X60.624 Y46.359 E0.1262
G1 X89.376 Y46.359 E1.0936
G1 X89.454 Y46.369 E1.0962
G1 X90.548 Y46.662 E1.1343
G1 X90.620 Y46.692 E1.1369
G1 X91.704 Y47.318 E1.1790
G1 X91.767 Y47.366 E1.1817
G1 X92.567 Y48.166 E1.2198
G1 X92.615 Y48.229 E1.2224
G1 X106.992 Y73.131 E2.1898
G1 X107.022 Y73.204 E2.1925
G1 X107.315 Y74.297 E2.2306
G1 X107.326 Y74.375 E2.2332
G1 X107.326 Y75.627 E2.2753
G1 X107.315 Y75.705 E2.2780
G1 X107.022 Y76.798 E2.3160
G1 X106.992 Y76.871 E2.3187
G1 X92.615 Y101.771 E3.2860
G1 X92.567 Y101.834 E3.2887
G1 X91.767 Y102.634 E3.3268
G1 X91.704 Y102.682 E3.3294
G1 X90.620 Y103.308 E3.3715
G1 X90.548 Y103.338 E3.3742
G1 X89.454 Y103.631 E3.4123
G1 X89.376 Y103.641 E3.4149
G1 X60.624 Y103.641 E4.3822
G1 X60.546 Y103.631 E4.3849
G1 X59.452 Y103.338 E4.4230
G1 X59.380 Y103.308 E4.4256
G1 X58.296 Y102.682 E4.4677
G1 X58.233 Y102.634 E4.4704
G1 X57.433 Y101.834 E4.5085
G1 X57.385 Y101.771 E4.5111
G1 X43.008 Y76.871 E5.4784
G1 X42.978 Y76.798 E5.4811
G1 X42.685 Y75.705 E5.5192
G1 X42.674 Y75.627 E5.5218
G1 X42.674 Y74.375 E5.5639
G1 X42.685 Y74.297 E5.5666
G1 X42.978 Y73.204 E5.6047
G1 X43.008 Y73.131 E5.6073
G1 X57.385 Y48.229 E6.5747
G1 X57.433 Y48.166 E6.5774
G1 X57.734 Y48.431 F4200
G92 E0
G1 X58.497 Y47.668 E0.0363 F1650
G1 X58.518 Y47.652 E0.0372
G1 X59.557 Y47.052 E0.0776
G1 X59.581 Y47.042 E0.0784
G1 X60.624 Y46.762 E0.1147
G1 X60.650 Y46.759 E0.1156
G1 X89.350 Y46.759 E1.0812
G1 X89.376 Y46.762 E1.0821
G1 X90.419 Y47.042 E1.1184
G1 X90.443 Y47.052 E1.1193
G1 X91.482 Y47.652 E1.1596
G1 X91.503 Y47.668 E1.1605
G1 X92.266 Y48.431 E1.1968
G1 X92.282 Y48.452 E1.1977
G1 X106.633 Y73.308 E2.1634
G1 X106.643 Y73.333 E2.1642
G1 X106.922 Y74.375 E2.2006
G1 X106.926 Y74.401 E2.2014
G1 X106.926 Y75.601 E2.2418
G1 X106.922 Y75.627 E2.2427
G1 X106.643 Y76.669 E2.2790
G1 X106.633 Y76.694 E2.2799
G1 X92.282 Y101.548 E3.2455
G1 X92.266 Y101.569 E3.2463
G1 X91.503 Y102.332 E3.2827
G1 X91.482 Y102.348 E3.2835
G1 X90.443 Y102.948 E3.3239
G1 X90.419 Y102.958 E3.3248
G1 X89.376 Y103.238 E3.3611
G1 X89.350 Y103.241 E3.3620
G1 X60.650 Y103.241 E4.3276
G1 X60.624 Y103.238 E4.3284
G1 X59.581 Y102.958 E4.3648
G1 X59.557 Y102.948 E4.3656
G1 X58.518 Y102.348 E4.4060
G1 X58.497 Y102.332 E4.4069
G1 X57.734 Y101.569 E4.4432
G1 X57.718 Y101.548 E4.4441
G1 X43.367 Y76.694 E5.4096
G1 X43.357 Y76.669 E5.4105
G1 X43.078 Y75.627 E5.4468
G1 X43.074 Y75.601 E5.4477
G1 X43.074 Y74.401 E5.4881
G1 X43.078 Y74.375 E5.4890
G1 X43.357 Y73.333 E5.5253
G1 X43.367 Y73.308 E5.5262
G1 X57.718 Y48.452 E6.4918
G1 X57.734 Y48.431 E6.4927
G92 E0
G1 E-1.5000 F1800
; inner perimeter
G1 X61.467 Y51.559 F4200
G1 E0.1000 F1800
G92 E0
G1 X88.533 Y51.559 E0.9106 F1485
G1 X102.067 Y75.001 E1.8213
G1 X88.533 Y98.441 E2.7319
G1 X61.467 Y98.441 E3.6425
G1 X47.933 Y75.001 E4.5531
G1 X61.467 Y51.559 E5.4638
; outer perimeter
G1 X61.232 Y51.165 F4200
G92 E0
G1 X61.243 Y51.159 E0.0004 F1320
G1 X88.757 Y51.159 E0.9261
G1 X88.768 Y51.165 E0.9265
G1 X102.526 Y74.995 E1.8522
G1 X102.526 Y75.007 E1.8527
G1 X88.768 Y98.835 E2.7783
G1 X88.757 Y98.841 E2.7788
G1 X61.243 Y98.841 E3.7044
G1 X61.232 Y98.835 E3.7048
G1 X47.474 Y75.007 E4.6305
G1 X47.474 Y74.995 E4.6309
G1 X61.232 Y51.165 E5.5567
; inner perimeter
G1 X72.446 Y70.579 F4200
G92 E0
G1 X71.391 Y71.391 E0.0448 F1485
G1 X70.579 Y72.448 E0.0896
G1 X70.068 Y73.678 E0.1344
G1 X69.897 Y74.994 E0.1791
G1 X70.067 Y76.313 E0.2238
G1 X70.579 Y77.553 E0.2690
G1 X71.391 Y78.611 E0.3138
G1 X72.446 Y79.421 E0.3586
G1 X73.678 Y79.931 E0.4035
G1 X75.001 Y80.106 E0.4483
G1 X76.322 Y79.931 E0.4932
G1 X77.553 Y79.421 E0.5380
G1 X78.611 Y78.611 E0.5828
G1 X79.421 Y77.553 E0.6277
G1 X79.932 Y76.321 E0.6725
G1 X80.104 Y75.001 E0.7173
G1 X79.933 Y73.686 E0.7619
G1 X79.421 Y72.449 E0.8070
G1 X78.613 Y71.393 E0.8517
G1 X77.554 Y70.579 E0.8967
G1 X76.321 Y70.068 E0.9415
G1 X75.001 Y69.896 E0.9863
G1 X73.679 Y70.068 E1.0312
G1 X72.446 Y70.579 E1.0761
; outer perimeter
G1 X72.648 Y70.928 F4200
G92 E0
G1 X71.676 Y71.676 E0.0413 F1320
G1 X70.928 Y72.650 E0.0826
G1 X70.458 Y73.783 E0.1238
G1 X70.300 Y74.994 E0.1649
G1 X70.457 Y76.210 E0.2062
G1 X70.928 Y77.352 E0.2477
G1 X71.676 Y78.326 E0.2890
G1 X72.648 Y79.072 E0.3303
G1 X73.783 Y79.542 E0.3716
G1 X75.001 Y79.703 E0.4129
G1 X76.217 Y79.542 E0.4542
G1 X77.352 Y79.072 E0.4955
G1 X78.326 Y78.326 E0.5368
G1 X79.072 Y77.352 E0.5781
G1 X79.542 Y76.217 E0.6194
G1 X79.701 Y75.001 E0.6606
G1 X79.543 Y73.790 E0.7017
G1 X79.072 Y72.650 E0.7432
G1 X78.327 Y71.678 E0.7844
G1 X77.352 Y70.928 E0.8258
G1 X76.217 Y70.458 E0.8671
G1 X75.001 Y70.299 E0.9084
G1 X73.783 Y70.458 E0.9497
G1 X72.648 Y70.928 E0.9911
; solid layer
G1 X73.393 Y69.819 F4200
G92 E0
G1 X89.426 Y53.786 E0.7628 F1320
G1 X89.633 Y54.144 E0.7768
G1 X74.108 Y69.669 E1.5154
G1 X74.759 Y69.585 E1.5375
G1 X89.840 Y54.503 E2.2551
G1 X90.047 Y54.862 E2.2690
G1 X75.315 Y69.594 E2.9700
G1 X75.815 Y69.659 E2.9869
G1 X90.254 Y55.220 E3.6740
G1 X90.461 Y55.579 E3.6879
G1 X76.316 Y69.725 E4.3609
G1 X76.410 Y69.737 E4.3641
G1 X76.734 Y69.871 E4.3760
G1 X90.669 Y55.937 E5.0389
G1 X90.876 Y56.296 E5.0529
G1 X77.134 Y70.037 E5.7067
G1 X77.534 Y70.203 E5.7212
G1 X91.083 Y56.655 E6.3658
G1 X91.290 Y57.013 E6.3798
G1 X77.892 Y70.410 E7.0172
G1 X78.212 Y70.656 E7.0308
G1 X91.497 Y57.372 E7.6628
G1 X91.704 Y57.731 E7.6768
G1 X78.532 Y70.902 E8.3035
G1 X78.852 Y71.148 E8.3170
G1 X91.911 Y58.089 E8.9384
G1 X92.118 Y58.448 E8.9523
G1 X79.098 Y71.468 E9.5718
G1 X79.343 Y71.788 E9.5853
G1 X92.325 Y58.806 E10.2030
G1 X92.532 Y59.165 E10.2169
G1 X79.589 Y72.108 E10.8328
G1 X79.718 Y72.278 E10.8399
G1 X79.796 Y72.466 E10.8468
G1 X92.739 Y59.524 E11.4626
G1 X92.946 Y59.882 E11.4765
G1 X79.962 Y72.867 E12.0943
G1 X80.127 Y73.267 E12.1089
G1 X93.153 Y60.241 E12.7286
G1 X93.360 Y60.600 E12.7426
G1 X80.275 Y73.685 E13.3651
G1 X80.341 Y74.185 E13.3821
G1 X93.567 Y60.958 E14.0114
G1 X93.774 Y61.317 E14.0254
G1 X80.406 Y74.685 E14.6614
G1 X80.447 Y75.001 E14.6721
G1 X80.416 Y75.241 E14.6803
G1 X93.981 Y61.676 E15.3257
G1 X94.188 Y62.034 E15.3397
G1 X80.331 Y75.892 E15.9990
G1 X80.263 Y76.410 E16.0166
G1 X80.181 Y76.607 E16.0238
G1 X94.395 Y62.393 E16.7001
G1 X94.603 Y62.751 E16.7140
G1 X79.781 Y77.573 E17.4192
G1 X88.657 Y97.547 F4200
G92 E0
G1 X88.103 Y98.101 E0.0264 F1320
G1 X87.537 Y98.101 E0.0454
G1 X89.430 Y96.209 E0.1354
G1 X90.203 Y94.870 E0.1874
